X:150
T:Cotillion. CJF.150
R:cotillion
S:C.J.Fox MS, 1829/33, Beverley,E.Yorks.
N:”C J Fox” is on the stave at the end of the tune. – PJH
B:Kidson Coll.Mitchell Lib.M1805
O:England
A:East Yorkshire
Z:vmp.P J Headford 2000 & 2008
M:3/8
L:1/16
Q:1/4=60
K:G
“p”Bc d2d2|Bc d2d2|ef g2g2|fe d2c2|\
Bc d2d2|Bc d2d2|ef g2g2|fa g2g2|!
Bc d2d2|Bc d2d2|ef g2g2|fe d2c2|\
Bc d2d2|Bc d2d2|ef g2g2|fa g2g2||!
” f”fg a2a2|ab g2f2|ef g2g2|ab f2d2|\
ab a2a2|ba g2gf|e2edef|d4d2|!
” f”fg a2a2|ab g2f2|ef g2g2|ab f2d2|\
ab a2a2|ba g2gf|e2ed ef|d4 d2|]

